app/assets/images/remix_icon/health/capsule-line.svg

<svg viewBox="0 0 24 24" xmlns="http://www.w3.org/2000/svg"><path d="M19.7786 4.22171C22.1217 6.56486 22.1217 10.3639 19.7786 12.707L12.7075 19.7781C10.3643 22.1212 6.56535 22.1212 4.2222 19.7781C1.87906 17.4349 1.87906 13.6359 4.2222 11.2928L11.2933 4.22171C13.6364 1.87857 17.4354 1.87857 19.7786 4.22171ZM14.1224 15.5347L8.46555 9.87786L5.63642 12.707C4.07432 14.2691 4.07432 16.8018 5.63642 18.3638C7.19851 19.9259 9.73117 19.9259 11.2933 18.3638L14.1224 15.5347ZM18.3643 5.63593C16.8022 4.07383 14.2696 4.07383 12.7075 5.63593L9.87976 8.46365L15.5366 14.1205L18.3643 11.2928C19.9264 9.73069 19.9264 7.19803 18.3643 5.63593Z"/></svg>

<svg xmlns="http://www.w3.org/2000/svg" viewBox="0 0 24 24">
    <g>
        <path fill="none" d="M0 0H24V24H0z"/>
        <path d="M19.778 4.222c2.343 2.343 2.343 6.142 0 8.485l-7.07 7.071c-2.344 2.343-6.143 2.343-8.486 0-2.343-2.343-2.343-6.142 0-8.485l7.07-7.071c2.344-2.343 6.143-2.343 8.486 0zm-5.656 11.313L8.465 9.878l-2.829 2.83c-1.562 1.561-1.562 4.094 0 5.656 1.562 1.562 4.095 1.562 5.657 0l2.829-2.83zm4.242-9.899c-1.562-1.562-4.095-1.562-5.657 0L9.88 8.464l5.657 5.657 2.828-2.828c1.562-1.562 1.562-4.095 0-5.657z"/>
    </g>
</svg>
